src/assets/svgs/refactor/story-external.svg

<svg fill="none" height="30" viewBox="0 0 30 30" width="30" xmlns="http://www.w3.org/2000/svg"><path d="m30 1.28941v8.56969c0 .7086-.5748 1.2864-1.2865 1.2864s-1.2865-.5748-1.2865-1.2864v-5.46478l-13.233 13.23158c-.2494.2494-.5809.3771-.9093.3771-.3285 0-.657-.1246-.9094-.3771-.5018-.5017-.5018-1.3167 0-1.8185l13.236-13.23467h-5.4653c-.7087 0-1.2865-.57476-1.2865-1.28636 0-.711611.5748-1.28332895 1.2834-1.28332895h8.5706c.7117 0 1.2865.57475895 1.2865 1.28636895zm-1.2865 14.14089c-.7086 0-1.2865.5748-1.2865 1.2864v8.5697c0 1.1799-.9611 2.1439-2.1442 2.1439h-20.56869c-1.18005 0-2.14416-.961-2.14416-2.1439v-20.56972c0-1.17993.96107-2.14395 2.14416-2.14395h8.57059c.7086 0 1.2865-.57476 1.2865-1.28636 0-.711611-.5748-1.28637-1.2865-1.28637h-8.57059c-2.60036.00304105-4.71411 2.11657-4.71411 4.71668v20.56972c0 2.6001 2.11375 4.7136 4.71411 4.7136h20.57179c2.6004 0 4.7141-2.1135 4.7141-4.7136v-8.5697c0-.7086-.5748-1.2864-1.2865-1.2864z" fill="#101010"/></svg>

<svg xmlns="http://www.w3.org/2000/svg" width="30" height="30" viewBox="0 0 30 30" fill="none">
  <path d="M30 1.28941V9.8591C30 10.5677 29.4252 11.1455 28.7135 11.1455C28.0018 11.1455 27.427 10.5707 27.427 9.8591V4.39432L14.194 17.6259C13.9446 17.8753 13.6131 18.003 13.2847 18.003C12.9562 18.003 12.6277 17.8784 12.3753 17.6259C11.8735 17.1242 11.8735 16.3092 12.3753 15.8074L25.6113 2.57273H20.146C19.4373 2.57273 18.8595 1.99797 18.8595 1.28637C18.8595 0.574759 19.4343 0.00304105 20.1429 0.00304105H28.7135C29.4252 0.00304105 30 0.5778 30 1.28941ZM28.7135 15.4303C28.0049 15.4303 27.427 16.0051 27.427 16.7167V25.2864C27.427 26.4663 26.4659 27.4303 25.2828 27.4303H4.71411C3.53406 27.4303 2.56995 26.4693 2.56995 25.2864V4.71668C2.56995 3.53675 3.53102 2.57273 4.71411 2.57273H13.2847C13.9933 2.57273 14.5712 1.99797 14.5712 1.28637C14.5712 0.574759 13.9964 0 13.2847 0H4.71411C2.11375 0.00304105 0 2.11657 0 4.71668V25.2864C0 27.8865 2.11375 30 4.71411 30H25.2859C27.8863 30 30 27.8865 30 25.2864V16.7167C30 16.0081 29.4252 15.4303 28.7135 15.4303Z" fill="#101010"/>
</svg>
